X: 11486
T: Ed Reavy's
R: reel
M: 4/4
K: Ddorian
|:^cdAG F2DF|EDCE DEFE|Ddd^c defd|efag e=c3|
^f3a g2ed|^cded =cAGE|D2EG Acde|cAGE EDD2:|
|:EcEG ^FDDA|d3e ^fdAd|g3a ge^ce|aged ^cAGE|
Ddd^c de=fd|AcBd cAGc|AG^FG BcAG|EDCD EDD2:|

